X: 24045
T: Lone Bush, The
R: hornpipe
M: 4/4
K: Gmajor
GA (3 Bcd c2 dB|GA (3 Bcd c2 Bc|dg (3 fga gfdc|(3 Bcd BG =FDCD|
GA (3 Bcd c2 dB|GA (3 Bcd c2 Bc|dgfd cAFA|1 G2 (3 AGF GDEF:|2 G2 (3 AGF G2 (3 Bcd||
gd (3 Bcd =fc (3 ABc|gd (3 Bcd f2 (3 def|gb (3fga gfde|(3 fga (3 gfe fdcA|
GA (3 Bcd c2 dB|GA (3 Bcd c2 Bc|dgfd cAFA|1 G2 (3 AGF G2 (3 Bcd:|2 G2 (3 AGF G4||

